packages/calcite-ui-icons/icons/zoning-parameter-32.svg

<?xml version="1.0" encoding="UTF-8"?><svg id="icons" xmlns="http://www.w3.org/2000/svg" viewBox="0 0 32 32"><rect width="32" height="32" style="fill:none;"/><path d="M22.12476,22.99982l4.49976-5.99982h-1.24951l-3.875,5.16675-3.875-5.16675h-1.24951l4.49982,5.99982-4.49982,6.00018h1.24951l3.875-5.16675,3.875,5.16675h1.24951l-4.49976-6.00018ZM30.01544,23.54688c0,2.74609-.49426,5.30103-1.35089,7.45312h1.05139c.82629-2.19202,1.28149-4.73389,1.28149-7.45312,0-3.18463-.62952-6.12988-1.73425-8.54688h-1.08154c1.15015,2.35284,1.8338,5.31885,1.8338,8.54688ZM12.99707,23.54688c0-3.22803.69263-6.19403,1.84277-8.54688h-1.08154c-1.10474,2.41699-1.75226,5.36224-1.75226,8.54688,0,2.71924.47321,5.26111,1.2995,7.45312h1.05139c-.85663-2.1521-1.35986-4.70703-1.35986-7.45312ZM26.98547,14.66992c-.10931.1098-.21771.22034-.32721.33008h-1.40796c.586-.58667,1.16473-1.17767,1.74969-1.76489v-2.59717c-1.23047,1.23785-2.45032,2.4823-3.68555,3.71753l-.64453.64453h-1.41406l1.35156-1.35156c1.47217-1.47217,2.92706-2.95471,4.39258-4.43073v-2.59711c-1.89441,1.91199-3.78003,3.82935-5.68555,5.73486l-2.64453,2.64453h-1.41406l3.35156-3.35156c2.14246-2.14246,4.26416-4.2973,6.39258-6.44806v-.20038c0-.55273-.44733-1-1-1h-.3847c-2.09808,2.11975-4.18915,4.24377-6.30084,6.35547l-3.86273,3.86273c-.17352-.13556-.38556-.2182-.61188-.2182h-.58398l4.35156-4.35156c1.87677-1.87677,3.73389-3.76532,5.59985-5.64844h-2.57483c-1.44073,1.45087-2.87079,2.90826-4.31799,4.35547l-6.43945,6.43945c-2.30243,2.30316-4.58844,4.61572-6.875,6.92816v2.59589c2.71313-2.74951,5.4325-5.49475,8.16797-8.23108l.12378-.12378c-.24139.6629-.45087,1.3465-.62573,2.04919-2.56421,2.56989-5.12152,5.14343-7.66602,7.72522v.26147c0,.55267.44733,1,1,1h.32422c1.92255-1.95056,3.85809-3.89307,5.79193-5.83667-.05048.50092-.07904,1.00818-.09747,1.51776-1.42975,1.4389-2.86212,2.87622-4.28577,4.31891h2.57593c.58575-.59229,1.17432-1.18292,1.76105-1.7746.03094.43127.08234.85608.13672,1.2818-.16284.16437-.32629.32837-.48907.4928h.55353c.05035.3363.10474.66913.16956,1h-6.44061c-1.10449,0-2-.89551-2-2V5c0-1.10449.89551-2,2-2h21c1.10449,0,2,.89551,2,2v8.65656l-1.01318,1.00806-.00134.00531ZM4,8.25714c.05621-.05627.11169-.11298.16797-.16925l4.08789-4.08789h-2.58594l-1.66992,1.66992v2.58722ZM4,12.27258c.72449-.72717,1.44189-1.45844,2.16797-2.18469l6.08789-6.08789h-2.58594l-4.79492,4.79492c-.29303.29315-.58221.5885-.875.88177v2.59589ZM4,16.28809c1.39001-1.39954,2.77209-2.80389,4.16797-4.2002l6.43945-6.43945c.54773-.54773,1.08746-1.10022,1.63428-1.64844h-2.57483c-.11804.11816-.23431.23737-.35242.35547l-6.43945,6.43945c-.96283.96313-1.91492,1.93256-2.875,2.89722v2.59595ZM20.22449,4h-2.57483c-.78076.78369-1.55255,1.57281-2.33521,2.35547l-6.43945,6.43945c-1.63263,1.63318-3.25031,3.27502-4.875,4.91272v2.59589c2.05292-2.07367,4.10229-4.14935,6.16797-6.21564l6.43945-6.43945c1.21222-1.21222,2.4093-2.43359,3.61707-3.64844Z"/></svg>

<svg xmlns="http://www.w3.org/2000/svg" viewBox="0 0 32 32"><path fill="none" d="M0 0h32v32H0z"/><path d="M22.125 23l4.5-6h-1.25L21.5 22.167 17.625 17h-1.25l4.5 6-4.5 6h1.25l3.875-5.167L25.375 29h1.25l-4.5-6zm7.89.547c0 2.746-.494 5.3-1.35 7.453h1.05c.827-2.192 1.282-4.734 1.282-7.453 0-3.185-.63-6.13-1.734-8.547h-1.081c1.15 2.353 1.833 5.319 1.833 8.547zm-17.018 0c0-3.228.693-6.194 1.843-8.547h-1.082c-1.104 2.417-1.752 5.362-1.752 8.547 0 2.72.473 5.261 1.3 7.453h1.05c-.856-2.152-1.359-4.707-1.359-7.453zm13.988-8.877l-.327.33H25.25c.586-.587 1.165-1.178 1.75-1.765v-2.597c-1.23 1.238-2.45 2.482-3.686 3.717L22.67 15h-1.414l1.351-1.352c1.473-1.472 2.927-2.954 4.393-4.43V6.62c-1.894 1.912-3.78 3.829-5.686 5.734L18.67 15h-1.414l3.351-3.352C22.75 9.506 24.872 7.351 27 5.2V5a1 1 0 0 0-1-1h-.385c-2.098 2.12-4.189 4.244-6.3 6.355l-3.863 3.863A.995.995 0 0 0 14.84 14h-.584l4.351-4.352c1.877-1.876 3.734-3.765 5.6-5.648h-2.575c-1.44 1.45-2.87 2.908-4.318 4.355l-6.439 6.44C8.573 17.098 6.287 19.41 4 21.723v2.596c2.713-2.75 5.433-5.495 8.168-8.231l.124-.124a20.228 20.228 0 0 0-.626 2.05A1743.18 1743.18 0 0 0 4 25.739V26a1 1 0 0 0 1 1h.324c1.923-1.95 3.858-3.893 5.792-5.837a23.73 23.73 0 0 0-.097 1.518C9.589 24.12 8.157 25.557 6.733 27h2.576l1.76-1.775c.032.432.083.856.138 1.282l-.49.493h.554c.05.336.105.67.17 1H5a2 2 0 0 1-2-2V5a2 2 0 0 1 2-2h21a2 2 0 0 1 2 2v8.657l-1.013 1.008-.001.005zM4 8.257l.168-.17L8.256 4H5.67L4 5.67v2.587zm0 4.016c.724-.728 1.442-1.459 2.168-2.185L12.256 4H9.67L4.875 8.795c-.293.293-.582.588-.875.882v2.596zm0 4.015c1.39-1.4 2.772-2.804 4.168-4.2l6.44-6.44c.547-.547 1.087-1.1 1.634-1.648h-2.575c-.118.118-.234.237-.353.355l-6.439 6.44c-.963.963-1.915 1.932-2.875 2.897v2.596zM20.224 4H17.65c-.781.784-1.553 1.573-2.336 2.355l-6.439 6.44C7.242 14.428 5.625 16.07 4 17.708v2.596c2.053-2.074 4.102-4.15 6.168-6.216l6.44-6.44C17.82 6.436 19.016 5.215 20.223 4z"/></svg>
